build/img/about_methods/card/icons/purple.svg

<svg width="63" height="62" viewBox="0 0 63 62" fill="none" xmlns="http://www.w3.org/2000/svg">
<path fill-rule="evenodd" clip-rule="evenodd" d="M35.896 1.68467C47.1143 2.89928 55.4832 12.4284 58.8078 22.4154C62.4225 33.2736 63.3372 47.6976 53.7892 54.7756C42.4082 63.2124 25.6364 62.2088 14.1014 53.8345C2.62929 45.5059 -1.33537 31.0673 3.876 18.5392C6.21315 12.9208 11.712 11.0066 17.0151 8.07445C22.8649 4.84001 28.7428 0.910198 35.896 1.68467Z" fill="#CAC6FA"/>
<path fill-rule="evenodd" clip-rule="evenodd" d="M25.4718 22.0473C25.4981 21.2934 26.1808 20.7054 26.9965 20.7339L41.1763 21.2291C41.992 21.2576 42.632 21.8918 42.6057 22.6456L42.3769 29.1971C42.3506 29.951 41.6679 30.539 40.8522 30.5105L39.6705 30.4692C39.1811 30.4521 38.7715 30.8049 38.7557 31.2572C38.7399 31.7095 39.1239 32.09 39.6133 32.1071L40.795 32.1484C42.5896 32.211 44.0914 30.9174 44.1493 29.259L44.3781 22.7075C44.436 21.0491 43.0281 19.6539 41.2335 19.5912L27.0537 19.096C25.2591 19.0334 23.7573 20.327 23.6994 21.9854L23.6422 23.6232C23.6264 24.0755 24.0103 24.456 24.4998 24.4731C24.9892 24.4902 25.3988 24.1374 25.4146 23.6851L25.4718 22.0473ZM25.5384 28.6091C25.4963 29.8152 24.4041 30.756 23.0989 30.7105C21.7937 30.6649 20.7697 29.6502 20.8119 28.4441C20.854 27.238 21.9462 26.2972 23.2514 26.3427C24.5566 26.3883 25.5806 27.403 25.5384 28.6091ZM38.1231 28.3988C38.401 28.0276 38.2995 27.5168 37.8963 27.2578C37.4932 26.9988 36.941 27.0898 36.663 27.4611L31.8348 33.909C31.3683 33.7485 30.8311 33.775 30.3689 34.0255L26.4722 35.7479L26.4913 35.202C26.5545 33.3928 25.0186 31.8708 23.0608 31.8024C21.103 31.734 19.4646 33.1452 19.4014 34.9544L19.1727 41.5059L26.2625 41.7535L26.351 39.2202C26.6637 39.1882 26.9745 39.0975 27.2648 38.9431L32.1051 36.7705C32.6867 36.4612 32.9966 35.8823 32.9557 35.2998L38.1231 28.3988ZM28.3497 24.3343C28.3655 23.882 28.775 23.5292 29.2645 23.5463L38.7177 23.8764C39.2071 23.8935 39.5911 24.274 39.5753 24.7263C39.5595 25.1786 39.1499 25.5314 38.6605 25.5143L29.2073 25.1842C28.7179 25.1671 28.3339 24.7866 28.3497 24.3343ZM29.1501 26.8221C28.6607 26.805 28.2511 27.1578 28.2353 27.61C28.2195 28.0623 28.6035 28.4428 29.0929 28.4599L33.8195 28.625C34.3089 28.6421 34.7185 28.2893 34.7343 27.837C34.7501 27.3847 34.3661 27.0042 33.8767 26.9871L29.1501 26.8221Z" fill="white"/>
</svg>

<svg width="63" height="62" fill="none" xmlns="http://www.w3.org/2000/svg"><path fill-rule="evenodd" clip-rule="evenodd" d="M35.896 1.685c11.218 1.214 19.587 10.743 22.912 20.73 3.614 10.859 4.53 25.283-5.019 32.36-11.38 8.437-28.153 7.434-39.688-.94C2.63 45.505-1.335 31.066 3.876 18.538c2.337-5.618 7.836-7.532 13.14-10.465C22.864 4.84 28.742.91 35.895 1.684Z" fill="#CAC6FA"/><path fill-rule="evenodd" clip-rule="evenodd" d="M25.472 22.047c.026-.754.709-1.342 1.524-1.313l14.18.495c.816.029 1.456.663 1.43 1.417l-.23 6.551c-.025.754-.708 1.342-1.524 1.314l-1.181-.042c-.49-.017-.9.336-.915.788-.016.452.368.833.857.85l1.182.041c1.795.063 3.296-1.23 3.354-2.889l.23-6.552c.057-1.658-1.35-3.053-3.145-3.116l-14.18-.495c-1.795-.063-3.297 1.231-3.355 2.89l-.057 1.637c-.016.453.368.833.858.85.49.017.899-.336.915-.788l.057-1.638Zm.066 6.562c-.042 1.206-1.134 2.147-2.44 2.101-1.304-.045-2.328-1.06-2.286-2.266.042-1.206 1.134-2.147 2.44-2.101 1.305.045 2.329 1.06 2.286 2.266Zm12.585-.21c.278-.371.177-.882-.227-1.141-.403-.26-.955-.168-1.233.203l-4.828 6.448a1.834 1.834 0 0 0-1.466.117l-3.897 1.722.02-.546c.063-1.81-1.473-3.331-3.431-3.4-1.958-.068-3.596 1.343-3.66 3.152l-.228 6.552 7.09.248.088-2.534c.313-.032.623-.123.914-.277l4.84-2.172c.582-.31.892-.889.85-1.471l5.168-6.901Zm-9.773-4.065c.015-.452.425-.805.915-.788l9.453.33c.49.017.873.398.857.85-.016.453-.425.805-.915.788l-9.453-.33c-.49-.017-.873-.397-.857-.85Zm.8 2.488c-.49-.017-.899.336-.915.788-.015.452.369.833.858.85l4.726.165c.49.017.9-.336.915-.788.016-.452-.368-.833-.857-.85l-4.727-.165Z" fill="#fff"/></svg>
